X: 1
T: Flickan i Havana
O: Sweden
M: 2/4
L: 1/8
K: D
| "D"D>E FF | "Em"(EF) G2 | "A7"C>D EE | "D"DE F2 \
| "D"D>E FF | "Em"(EF) G2 | "A7"C>D EF | "D"D3 z ||
|: "D7"F>G AA | "Em"GA B2 | "A7"E>F GG | "D"FG A2 \
| "Bm"D>E FF | "Em"EF  G2 | "A7"C>D EF | "D"D3 z :|
